X: 144
T: Pioneer's March
%R: jig, march
Z: 2017 John Chambers <jc:trillian.mit.edu>
B: John Treat - "Gamut for the Fifes", 1779, p.14 #4
F: https://archive.org/details/GamutFortheFifes
N: The rhythms aren't quite right between strains; not fixed.
M: 6/8
L: 1/8
K: G
% - - - - - - - - - - - - - - - - - - - - - - - - -
B/c/ |\
dcB cBA | G2G G2B/c/ | dcB cBA | G3 z2 ::\
G2d Td3 | G2e Te3 | G2g fed | edc d3 |
G2d Td3 | G2e Te3 | G2g fed | edc d2B/c/ |\
dcB cBA | G2G G2B/c/ | dcB cBA | G3 z3 :|
% - - - - - - - - - - - - - - - - - - - - - - - - -
